src/assets/images/insta.svg

<svg width="19" height="19" viewBox="0 0 19 19" fill="none" xmlns="http://www.w3.org/2000/svg">
<path d="M15.7464 18.5019C17.0257 18.0085 18.0371 16.9989 18.5314 15.7218C18.7654 15.1168 18.9292 14.4266 18.9737 13.417C18.9842 13.1805 18.9924 12.982 19 12.7829V6.03728C18.9947 5.89655 18.9889 5.74999 18.9813 5.58532C18.9368 4.5757 18.773 3.88199 18.539 3.28053C18.2974 2.6423 17.9254 2.07063 17.4387 1.59589C16.9625 1.11298 16.3863 0.738092 15.754 0.501015C15.1479 0.267442 14.4565 0.103941 13.4451 0.0595623C12.426 0.0110959 12.1026 0 9.51872 0C6.93488 0 6.61081 0.0110954 5.59587 0.0554743C4.58445 0.0998532 3.8895 0.263354 3.28698 0.496927C2.6476 0.738091 2.07491 1.10947 1.59874 1.59589C1.11555 2.07121 0.739993 2.64638 0.501908 3.27703C0.267918 3.88199 0.104125 4.57219 0.0596668 5.58181C0.0111139 6.59902 0 6.92194 0 9.50175C0 12.0816 0.0111135 12.4045 0.0555716 13.4176C0.10003 14.4272 0.263823 15.1215 0.498398 15.7224C0.739993 16.3606 1.11555 16.9323 1.59874 17.4076C2.07491 17.8899 2.65111 18.2654 3.28347 18.5025C3.8895 18.7361 4.58094 18.8996 5.59236 18.9439C6.6073 18.9889 6.93079 19 9.51521 19C12.0996 19 12.4225 18.9889 13.4381 18.9439C14.4495 18.8996 15.1444 18.7361 15.747 18.5025L15.7464 18.5019ZM9.52223 17.292C6.98227 17.292 6.67749 17.2809 5.67719 17.2365C4.74766 17.1956 4.24575 17.0397 3.91114 16.9101C3.49874 16.7577 3.12318 16.5165 2.81783 16.2012C2.50194 15.8929 2.25976 15.5221 2.10767 15.1098C1.9778 14.7758 1.82161 14.2707 1.78066 13.3469C1.73621 12.3449 1.72509 12.0442 1.72509 9.50876C1.72509 6.97333 1.73621 6.6691 1.78066 5.67116C1.82161 4.74329 1.9778 4.24227 2.10767 3.90826C2.26034 3.49601 2.50194 3.12112 2.82192 2.81689C3.1302 2.50157 3.50225 2.2604 3.91465 2.108C4.24926 1.97836 4.75526 1.82245 5.6807 1.78158C6.68451 1.7372 6.98578 1.72611 9.52515 1.72611C12.0645 1.72611 12.3699 1.7372 13.3702 1.78158C14.2997 1.82245 14.8016 1.97836 15.1362 2.108C15.5486 2.2604 15.9242 2.50157 16.229 2.81689C16.5449 3.12521 16.787 3.49601 16.9391 3.90826C17.069 4.24227 17.2252 4.74679 17.2661 5.67116C17.3106 6.67318 17.3217 6.97391 17.3217 9.50876C17.3217 12.0436 17.3106 12.3408 17.2661 13.3429C17.2252 14.2707 17.069 14.7717 16.9391 15.1058C16.6192 15.9338 15.9611 16.5907 15.1321 16.9095C14.7975 17.0392 14.2921 17.1951 13.3661 17.2359C12.3623 17.2803 12.061 17.2914 9.52164 17.2914L9.52223 17.292Z" fill="#A11CAF"/>
<path d="M9.51871 4.62002C6.81904 4.62002 4.6289 6.80626 4.6289 9.50111C4.6289 12.196 6.81904 14.3822 9.51871 14.3822C12.2184 14.3822 14.4079 12.196 14.4079 9.50111C14.4079 6.80626 12.2178 4.62002 9.51871 4.62002ZM9.51871 12.6666C7.76729 12.6666 6.34697 11.2488 6.34697 9.50053C6.34697 7.75223 7.76729 6.33444 9.51871 6.33444C11.2701 6.33444 12.6904 7.75223 12.6904 9.50053C12.6904 11.2488 11.2701 12.6666 9.51871 12.6666Z" fill="#A11CAF"/>
<path d="M15.7429 4.42736C15.7429 3.79788 15.2316 3.28811 14.601 3.28811C13.9704 3.28811 13.4597 3.79847 13.4597 4.42736C13.4597 5.05626 13.971 5.56662 14.601 5.56662C15.231 5.56662 15.7429 5.05684 15.7429 4.42736Z" fill="#A11CAF"/>
</svg>

<svg width="19" height="19" fill="none" xmlns="http://www.w3.org/2000/svg"><path d="M15.746 18.502a4.861 4.861 0 0 0 2.785-2.78c.234-.605.398-1.295.443-2.305l.026-.634V6.037c-.005-.14-.011-.287-.019-.452-.044-1.01-.208-1.703-.442-2.304a4.636 4.636 0 0 0-1.1-1.685A4.676 4.676 0 0 0 15.754.5C15.148.267 14.457.104 13.445.06 12.426.01 12.103 0 9.52 0S6.61.011 5.596.055C4.584.1 3.889.263 3.287.497a4.647 4.647 0 0 0-1.688 1.099A4.683 4.683 0 0 0 .502 3.277C.268 3.882.104 4.572.06 5.582.01 6.599 0 6.922 0 9.502s.011 2.902.056 3.916c.044 1.01.208 1.704.442 2.304.242.639.618 1.21 1.1 1.686a4.684 4.684 0 0 0 1.685 1.095c.607.233 1.298.397 2.31.44C6.606 18.99 6.93 19 9.514 19c2.585 0 2.907-.011 3.923-.056 1.011-.044 1.706-.208 2.309-.441v-.001zm-6.224-1.21c-2.54 0-2.845-.011-3.845-.056-.93-.04-1.431-.196-1.766-.326a2.94 2.94 0 0 1-1.093-.709 2.95 2.95 0 0 1-.71-1.091c-.13-.334-.286-.84-.327-1.763-.045-1.002-.056-1.303-.056-3.838 0-2.536.011-2.84.056-3.838.04-.928.197-1.429.327-1.763.152-.412.394-.787.714-1.091.308-.315.68-.557 1.093-.709.334-.13.84-.286 1.766-.326 1.004-.045 1.305-.056 3.844-.056 2.54 0 2.845.011 3.845.056.93.04 1.432.196 1.766.326.413.152.788.394 1.093.709.316.308.558.679.71 1.091.13.334.286.839.327 1.763.045 1.002.056 1.303.056 3.838s-.011 2.832-.056 3.834c-.04.928-.197 1.429-.327 1.763a3.153 3.153 0 0 1-1.807 1.804c-.335.13-.84.285-1.766.326-1.004.044-1.305.055-3.844.055v.001z" fill="#A11CAF"/><path d="M9.519 4.62c-2.7 0-4.89 2.186-4.89 4.881a4.887 4.887 0 0 0 4.89 4.881c2.7 0 4.889-2.186 4.889-4.88a4.886 4.886 0 0 0-4.89-4.882zm0 8.047A3.17 3.17 0 0 1 6.347 9.5a3.17 3.17 0 0 1 3.172-3.167 3.17 3.17 0 0 1 3.171 3.167 3.17 3.17 0 0 1-3.171 3.166zM15.743 4.427c0-.63-.511-1.139-1.142-1.139a1.14 1.14 0 1 0 0 2.279c.63 0 1.142-.51 1.142-1.14z" fill="#A11CAF"/></svg>
